X:1
T:Title
%%score 1 2
L:1/8
Q:1/4=90
M:3/4
K:Eb
V:1 treble nm="Strings 1, Treble"
V:2 bass nm="Strings 1, Bass"
V:1
 z2 z2 [B,E]>[B,F] | [EG]2 [EG]2 [EG]>[FA] | [GB]2 E2 [DF]2 | [EG]4 E>[EF] | %4
w: 1.~I~ am~|Thine~ dear,~ bless ed~|Je sus,~ all~|Thine,~ All~ of~|
 [EG]2 [EG]2 [EG]>[FA] | [GB]2 E2 [EG]2 | [DF]4 [B,E]>[B,F] | [EG]2 [EG]2 [EG]>[EA] | %8
w: self~ now~ to~ the~|death~ I~ con|sign;~ Glad ly,~|glad ly~ all~ I~|
 [EB]2 E2 [DF]2 | [EG]4 E>[EF] | [EG]2 [EG]2 [EG]>[EA] | [EB]2 E2 [DF]2 | E4 [EG]>[FA] | %13
w: have~ I~ re|sign,~ That~ sal|va tion~ in~ its~|full ness~ be~|mine.~ * *|
 [GB]2 [GB]2 [Ac]>[Ad] | [Ge]2 [EB]2 [Ec]2 | [EB]4 [EG]>[FA] | [GB]2 [GB]2 [Ac]>[Ad] | %17
w: ||||
 [Ge]2 [GB]2 [Ac]2 | [GB]4 E>[EF] | [EG]2 [EG]2 [EG]>[EA] | [EB]2 E2 [DF]2 | [EG]4 E>[EF] | %22
w: |||||
 [EG]2 [EG]2 [EG]>[EA] | [EB]2 E2 [DF]2 | E4 z2 |] %25
w: |||
V:2
 z2 z2 [E,G,]>[E,A,] | [E,B,]2 [E,B,]2 [E,B,]>[E,B,] | [E,E]2 [E,G,]2 [B,,B,]2 | %3
 [E,B,]4 [E,G,]>[E,A,] | [E,B,]2 [E,B,]2 [E,B,]>[E,B,] | [E,E]2 [G,B,]2 [E,B,]2 | %6
 [B,,B,]4 [E,G,]>[E,A,] | [E,B,]2 [E,B,]2 E,>[E,F,] | [E,G,]2 [C,G,]2 [B,,B,]2 | %9
 [E,B,]4 [E,G,]>[E,A,] | [E,B,]2 [E,B,]2 [E,B,]>[E,A,] | [E,G,]2 [E,G,]2 [B,,A,]2 | %12
 [E,G,]4 [E,B,]>[E,B,] | [E,E]2 [E,E]2 [E,E]>[E,B,] | [E,B,]2 [E,G,]2 [E,A,]2 | %15
 [E,G,]4 [E,B,]>[E,B,] | [E,E]2 [E,E]2 [E,E]>[E,B,] | [E,B,]2 [E,E]2 [E,E]2 | %18
 [E,E]4 [E,G,]>[E,A,] | [E,B,]2 [E,B,]2 E,>[E,F,] | [E,G,]2 [C,G,]2 [B,,B,]2 | %21
 [E,B,]4 [E,G,]>[E,A,] | [E,B,]2 [E,B,]2 [E,B,]>[E,A,] | [E,G,]2 [E,G,]2 [B,,A,]2 | [E,G,]4 z2 |] %25

